X:102
T:Mickey Chewing Bubblegum
C:Terence "Cuz" Teahan
B:Terry "Cuz" Teahan "Sliabh Luachra on Parade" 1980
Z:Patrick Cavanagh
M:2/4
L:1/8
R:Polka
K:A
| a2 af | ec a2 | ce af | ec BA | 
a2 af | ec a2 | ce Bc | BA A2 :| 
| ce ec | df fe | ce ec | dc BA | 
ce ec | df fe | ce Bc | BA A2 :|| 

